!!!!SEGMENT: pl-sa--375-a-viii-15--001_anonim--ktolz-cie-moj-jezu.krn
!!!cenid: 17xx:1445
!!!COM: Anonim
!!!COM-rismID: pe30004985
!!!CDT:
!!!CNT:
!!!OTL: Któż cię mój Jezu
!!!PDT:
!!!AGN: Sacred
!!!SMS-siglum: PL-SA
!!!SMS-shelfmark: 375/A VIII 15
!!!SMS-shelfwork: 001 W
!!!SMS-variant:
!!!SMS-altvar:
!!!NIFC-rismSourceID: 1001068101
!!!NIFC-islandoraID:
!!!URL-pdf-islandora:
!!!URL-scan: https://bc.bdsandomierz.pl/dlibra/publication/1679/edition/1647/content @EN{Scan on Cyfrowa Biblioteka Diecezjalna w Sandomierzu} @PL{Skany w portalu Cyfrowa Biblioteka Diecezjalna w Sandomierzu}
!!!ONB-nifc: UWAGA: utwory w zbiorze: 1. Któż cię mój Jezu [do tak okrutnego krzyża…],
!!!AIN: 1 vox
!!!key:
**kern	**text	**text	**text	**text
*Ivox	*	*	*	*
*I"Canto	*	*	*	*
*I'S	*	*	*	*
*clefC1	*	*	*	*
*k[e-e-b-]	*	*	*	*
*c:	*	*	*	*
*M3/4	*	*	*	*
=1	=1	=1	=1	=1
*2\right	*	*	*	*
!LO:TX:a:t=1	!	!	!	!
!LO:TX:t=P:problem=kolejność znaków ee- e- b-	!	!	!	!
4ee-\	Ktoz	Cia-	U-	Krew
4b-\	cię	-lo	-sta	się
8cc\L	Moy	pa-	o-	z nay-
8dd-X\J	.	.	.	.
=2	=2	=2	=2	=2
2cc\	Je-	-niey-	-twar-	-mniey-
4b-\	-su	-ſkie	-te	-ſzych
=3	=3	=3	=3	=3
4.ff\	Do	Gwał-	Ja-	Zy-
8ee-\	tak	-tem	-go-	-łek
4dd\	o-	ros-	-dy	wy-
=4	=4	=4	=4	=4
4ee-\	-krut-	-cią-	Ze-	-to-
2dd\	-ne-	-gnio-	-snia-	-czy-
=5	=5	=5	=5	=5
2.ee-\	-go,	-no,	-ły,	-ła,
=6	=6	=6	=6	=6
4ee-\	krzy-	w ser-	człon-	od
4b-\	-za	-cu	-ki-	stop
(8cc\L	przy-	głe-	-y	do
8dd-X\J)	.	.	.	.
=7	=7	=7	=7	=7
2cc\	-ko-	-bo-	Zy-	Gło-
4b-\	-wał	-ką	-ty	-wy
=8	=8	=8	=8	=8
4.cc\	sro-	Ra-	wszy-	Co
8b-\	-dze	-nę	-stkie	to
4a\	zra-	u-	się	za
=9	=9	=9	=9	=9
4g/	-ni-	-czy-	por-	Złosc
2f/	-ne-	-nio-	-wa-	by-
=10	=10	=10	=10	=10
2e-/	-go	-no	-ły	-ła
4ryy	.	.	.	.
!!LO:LB:g=original	!	!	!	!
=11:|!|:	=11:|!|:	=11:|!|:	=11:|!|:	=11:|!|:
4gg\	Re-	Ko-	Krew	Ko-
4dd\	-ce	-ro-	się	-ro-
4ee-\	co	-na	od	-na
=12	=12	=12	=12	=12
2bn\	nie-	ſ cier-	ſłon-	w po-
4cc\	-bo	-nia	-ca	-srod-
=13	=13	=13	=13	=13
2dd\	nie-	ſ cier-	ſ pie-	-ku
4ee-\	-bo	-nia	-kła	lo-
=14	=14	=14	=14	=14
4.ff\	y	bar-	ſ pie-	-trow
8ee-\	Zie-	-dzo	-kła	.
4dd\	-mie	ko-	go-	za-
=15	=15	=15	=15	=15
4ee-\	Stwo-	-lą-	-rą-	-wie-
2dd\	-zy-	-ce-	-ce-	-ſzo-
=16	=16	=16	=16	=16
2.cc\	-ły,	-go,	-go,	-ny,
=17	=17	=17	=17	=17
4b-\	Gwo-	Glo-	A	od
4cc\	-zdzie	-wę	dru-	Zy-
4dd\	Ze-	Zra-	-ga	-dów
=18	=18	=18	=18	=18
2ee-\	-la-	-nio-	Z rąk	ſpor-
4ee-\	-zne	-no	Z nog	-nych
=19	=19	=19	=19	=19
4.cc\	y	Do	pły-	Cha-
8dd\	no-	moz-	-nie	-nie-
4dd\	-gi	-gu	Z bo-	-bnie
=20	=20	=20	=20	=20
4ee-\	prze-	ſa-	-ku	Zel-
2dd\	-by-	-me-	twe-	-zo-
=21	=21	=21	=21	=21
2.ee-\	-ły	-go	-go	-ny
=:|!	=:|!	=:|!	=:|!	=:|!
*-	*-	*-	*-	*-
!!!system-decoration: [(s1)]
!!!ENC: Marcin Jachim
!!!END: 2020-12-03
